flaticon/transportation/motorbike-1.svg

<svg xmlns="http://www.w3.org/2000/svg" width="32" height="32" viewBox="0 0 24 24">
    <path d="M 12.109375 4.355469 C 10.976562 4.355469 10.058594 5.46875 10.058594 6.835938 C 10.058594 8.203125 10.976562 9.3125 12.109375 9.3125 C 13.242188 9.3125 14.164062 8.203125 14.164062 6.835938 C 14.164062 5.46875 13.242188 4.355469 12.109375 4.355469 Z M 12.109375 8.292969 C 11.550781 8.292969 11.078125 7.625 11.078125 6.835938 C 11.078125 6.046875 11.550781 5.378906 12.109375 5.378906 C 12.667969 5.378906 13.140625 6.046875 13.140625 6.835938 C 13.140625 7.625 12.667969 8.292969 12.109375 8.292969 Z M 12.109375 8.292969"/>
    <path d="M 21.503906 0 C 19.234375 0 17.523438 0.960938 17.523438 2.230469 C 17.523438 2.621094 17.683594 2.976562 17.964844 3.289062 L 16.40625 4.089844 C 15.894531 1.738281 14.164062 0 12.109375 0 C 10.054688 0 8.316406 1.746094 7.808594 4.105469 L 6.089844 3.222656 C 6.339844 2.925781 6.476562 2.59375 6.476562 2.230469 C 6.476562 0.960938 4.765625 0 2.496094 0 C 1.058594 0 0 0.457031 0 0.457031 L 0 4.007812 C 0 4.007812 1.019531 4.464844 2.496094 4.464844 C 3.550781 4.464844 4.488281 4.257812 5.1875 3.90625 L 7.667969 5.183594 C 7.664062 5.300781 7.660156 5.417969 7.660156 5.535156 L 7.660156 16.777344 C 7.660156 18.375 8.683594 19.679688 9.972656 19.777344 L 9.972656 21.863281 C 9.972656 23.042969 10.933594 24 12.109375 24 C 13.289062 24 14.246094 23.042969 14.246094 21.863281 L 14.246094 19.777344 C 15.535156 19.679688 16.5625 18.375 16.5625 16.777344 L 16.5625 5.535156 C 16.5625 5.410156 16.558594 5.289062 16.550781 5.167969 L 18.910156 3.953125 C 19.597656 4.273438 20.496094 4.464844 21.503906 4.464844 C 22.980469 4.464844 24 4.007812 24 4.007812 L 24 0.457031 C 24 0.457031 22.941406 0 21.503906 0 Z M 1.019531 3.265625 L 1.019531 1.199219 C 1.472656 1.082031 1.972656 1.019531 2.496094 1.019531 C 4.300781 1.019531 5.457031 1.738281 5.457031 2.230469 C 5.457031 2.726562 4.300781 3.441406 2.496094 3.441406 C 1.976562 3.441406 1.472656 3.382812 1.019531 3.265625 Z M 13.226562 21.863281 C 13.226562 22.480469 12.726562 22.980469 12.109375 22.980469 C 11.496094 22.980469 10.996094 22.480469 10.996094 21.863281 L 10.996094 16.683594 C 10.996094 16.066406 11.496094 15.566406 12.109375 15.566406 C 12.726562 15.566406 13.226562 16.066406 13.226562 16.683594 Z M 15.539062 16.777344 C 15.539062 17.800781 14.972656 18.644531 14.246094 18.75 L 14.246094 16.683594 C 14.246094 15.503906 13.289062 14.546875 12.109375 14.546875 C 10.933594 14.546875 9.972656 15.503906 9.972656 16.683594 L 9.972656 18.75 C 9.25 18.644531 8.679688 17.800781 8.679688 16.777344 L 8.679688 5.535156 C 8.679688 3.046875 10.21875 1.019531 12.109375 1.019531 C 14 1.019531 15.539062 3.046875 15.539062 5.535156 Z M 22.980469 3.265625 C 22.527344 3.382812 22.023438 3.441406 21.503906 3.441406 C 19.699219 3.441406 18.542969 2.726562 18.542969 2.230469 C 18.542969 1.738281 19.699219 1.019531 21.503906 1.019531 C 22.027344 1.019531 22.527344 1.082031 22.980469 1.199219 Z M 22.980469 3.265625"/>
</svg>

<svg xmlns="http://www.w3.org/2000/svg" width="32" height="32" viewBox="0 0 24 24">
    <path d="M12.11 4.355c-1.133 0-2.051 1.114-2.051 2.48 0 1.368.918 2.478 2.05 2.478 1.133 0 2.055-1.11 2.055-2.477 0-1.367-.922-2.48-2.055-2.48zm0 3.938c-.56 0-1.032-.668-1.032-1.457 0-.79.473-1.457 1.031-1.457.559 0 1.032.668 1.032 1.457s-.473 1.457-1.032 1.457zm0 0"/>
    <path d="M21.504 0c-2.27 0-3.98.96-3.98 2.23 0 .391.16.747.44 1.06l-1.558.8C15.895 1.738 14.164 0 12.11 0c-2.054 0-3.793 1.746-4.3 4.105l-1.72-.882c.25-.297.388-.63.388-.993C6.477.96 4.766 0 2.497 0 1.058 0 0 .457 0 .457v3.55s1.02.458 2.496.458c1.055 0 1.992-.207 2.692-.559l2.48 1.278c-.004.117-.008.234-.008.351v11.242c0 1.598 1.024 2.903 2.313 3v2.086a2.137 2.137 0 0 0 4.273 0v-2.086c1.29-.097 2.316-1.402 2.316-3V5.535c0-.125-.003-.246-.011-.367l2.36-1.215c.687.32 1.585.512 2.593.512 1.476 0 2.496-.457 2.496-.457V.457S22.941 0 21.504 0zM1.02 3.266V1.199c.453-.117.953-.18 1.476-.18 1.805 0 2.961.72 2.961 1.211 0 .497-1.156 1.211-2.96 1.211-.52 0-1.024-.058-1.477-.175zm12.207 18.597a1.116 1.116 0 0 1-2.23 0v-5.18a1.116 1.116 0 1 1 2.23 0zm2.312-5.086c0 1.024-.566 1.868-1.293 1.973v-2.066a2.137 2.137 0 0 0-4.273 0v2.066c-.723-.105-1.293-.95-1.293-1.973V5.535c0-2.488 1.539-4.515 3.43-4.515 1.89 0 3.43 2.027 3.43 4.515zM22.98 3.266a5.953 5.953 0 0 1-1.476.175c-1.805 0-2.961-.714-2.961-1.21 0-.493 1.156-1.211 2.96-1.211.524 0 1.024.062 1.477.18zm0 0"/>
</svg>
